!!!COM: Beethoven, Ludwig van
!!!CDT: 1770///-1827///
!!!ODT: 1825///
!!!OTL: String Quartet No. 15 in A Minor, Op. 132
!!!OPS: Op. 132
!!!OMV: Mvmt. 4
!!!OMD: Alla Marcia, assai vivace
**kern	**dynam	**kern	**dynam	**kern	**dynam	**kern	**dynam
*staff4	*staff4	*staff3	*staff3	*staff2	*staff2	*staff1	*staff1
*Icello	*Icello	*Iviola	*Iviola	*Ivioln	*Ivioln	*Ivioln	*Ivioln
*>[A,A,B,B,C]	*>[A,A,B,B,C]	*>[A,A,B,B,C]	*>[A,A,B,B,C]	*>[A,A,B,B,C]	*>[A,A,B,B,C]	*>[A,A,B,B,C]	*>[A,A,B,B,C]
*>norep[A,B,C]	*>norep[A,B,C]	*>norep[A,B,C]	*>norep[A,B,C]	*>norep[A,B,C]	*>norep[A,B,C]	*>norep[A,B,C]	*>norep[A,B,C]
*>A	*>A	*>A	*>A	*>A	*>A	*>A	*>A
*clefF4	*clefF4	*clefC3	*clefC3	*clefG2	*clefG2	*clefG2	*clefG2
*k[f#c#g#]	*k[f#c#g#]	*k[f#c#g#]	*k[f#c#g#]	*k[f#c#g#]	*k[f#c#g#]	*k[f#c#g#]	*k[f#c#g#]
*A:	*A:	*A:	*A:	*A:	*A:	*A:	*A:
*M4/4	*M4/4	*M4/4	*M4/4	*M4/4	*M4/4	*M4/4	*M4/4
*MM144	*MM144	*MM144	*MM144	*MM144	*MM144	*MM144	*MM144
=1-	=1-	=1-	=1-	=1-	=1-	=1-	=1-
4r	.	4r	.	4r	.	8.e/L	f
.	.	.	.	.	.	16a/Jk	.
[4AA/	f	8.E/L	f	8.c#/L	f	[4cc#\	.
.	.	16A/Jk	.	16e/Jk	.	.	.
8.AA/L]	.	(8.c#\L	.	(8.a/L	.	(8.cc#\L]	.
16C#/Jk	>	16e\Jk)	>	16e/k)	>	16a\k)	>
8BB/L	p	8d/L	p	8g#/	p	8b\	p
16r	.	16r	.	16r	.	16r	.
16AA/Jk	.	16E/Jk	.	16c#/Jk 16a/	.	16cc#\Jk	.
=2	=2	=2	=2	=2	=2	=2	=2
8GG#/L	.	8E/L	.	8B/L	.	8dd\L	.
8r	.	8r	.	8r	.	8r	.
8AA/J	.	8E/J	.	8A/J	.	8cc#\J	.
8r	.	8r	.	8r	.	8r	.
2r	.	2r	.	2r	.	2r	.
=3	=3	=3	=3	=3	=3	=3	=3
8.AA/L	f	8.A/L	f	4r	.	8.a\L	f
16EE/Jk	.	16E/Jk	.	.	.	16cc#\Jk	.
[4CC#/	.	[4C#/	.	8.A/L	f	[4ee\	f
.	.	.	.	16c#/Jk	.	.	.
(8.CC#/L]	.	(8.C#/L]	.	(8.e/L	.	(8.ee\L]	.
16AA/Jk)	>	16A/Jk)	>	16c#/Jk)	>	16cc#\Jk)	>
8FF#/L	p	8F#/L	p	8a/L	p	8dd\L	p
16r	.	16r	.	16r	.	16r	.
16DD/Jk	.	16D/Jk	.	16f#/Jk	.	16ff#\Jk	.
=4	=4	=4	=4	=4	=4	=4	=4
8EE/L	.	8E/L	.	8c#/L 8a/	.	8cc#\L	.
8r	.	8r	.	8r	.	8r	.
8E/J	.	8e/J	.	8g#/J	.	8b\J	.
8r	.	8r	.	8r	.	8r	.
2r	.	(16E/LL	.	4r	.	4r	.
.	.	16G#/	.	.	.	.	.
.	.	16B/	.	.	.	.	.
.	.	16d/JJ)	.	.	.	.	.
.	.	4r	.	(16e/LL	.	(8.dd\L	.
.	.	.	.	16g#/	.	.	.
.	.	.	.	16cc#/	.	.	.
.	.	.	.	16g#/JJ)	.	16dd\Jk	.
=5	=5	=5	=5	=5	=5	=5	=5
8.GG#/L	.	1E 1B	.	4b\	.	4.dd\	.
16BB/Jk	.	.	.	.	.	.	.
4E\	.	.	.	8.G#/L	.	.	.
.	.	.	.	.	.	8b\	.
.	.	.	.	16B/Jk	.	.	.
4r	.	.	.	4e/	.	8a\L	.
.	.	.	.	.	.	8g#\	.
4D\	.	.	.	4G#/	.	8b\)	.
.	.	.	.	.	.	16r	.
.	.	.	.	.	.	16ee\Jk	.
=6	=6	=6	=6	=6	=6	=6	=6
8.CC#/L	.	2.E/ 2.A/	.	4r	.	(4.ee\	.
16EE/Jk	.	.	.	.	.	.	.
4AA/	.	.	.	8.c#/L	.	.	.
.	.	.	.	.	.	8cc#\	.
.	.	.	.	16e/Jk	.	.	.
4r	.	.	.	4a/	.	8b\L	.
.	.	.	.	.	.	8a\	.
4FF#/	.	4F#/ 4A/	.	4c#/ 4a/	.	8aa\)	.
.	.	.	.	.	.	16r	.
.	.	.	.	.	.	16ff#\Jk	.
=7	=7	=7	=7	=7	=7	=7	=7
4BB/	.	(16F#/LL	.	(16a/LL	.	(4.ee\	.
.	.	16E#/	.	16g#/	.	.	.
.	.	16F#/	.	16a/	.	.	.
.	.	16E#/JJ	.	16g#/JJ	.	.	.
[4B\	.	16F#/LL	.	16a/LL	.	.	.
.	.	16E#/	.	16g#/	.	.	.
.	.	16F#/	.	16a/	.	8dd#\	.
.	.	16E#/JJ)	.	16g#/JJ)	.	.	.
8B\L]	<	(8G#/L	<	(8b/L	<	8ee\L	<
(8B\	<	8F#/)	<	8a/)	<	8dd#\	<
8c#\)	.	8F#/	.	8a/	.	8ee\)	.
16r	.	16r	.	16r	.	16r	.
16d#\Jk	.	16F#/Jk	.	16a/Jk	.	16ff#\Jk	.
=8	=8	=8	=8	=8	=8	=8	=8
8e\L	f	8E/L	f	8g#/L	f	8b\L	f
8r	.	8r	.	8r	.	8r	.
8BB\J	.	8B/J 8f#/	.	8a/J 8b/	.	8dd#\J	.
8r	.	8r	.	8r	.	8r	.
8EE/	.	8B\ 8e\	.	8g#/ 8b/	.	8ee\	.
8r	.	8r	.	8r	.	8r	.
4r	.	4r	.	4r	.	4r	.
=9:|!|:	=9:|!|:	=9:|!|:	=9:|!|:	=9:|!|:	=9:|!|:	=9:|!|:	=9:|!|:
*>B	*>B	*>B	*>B	*>B	*>B	*>B	*>B
*clefC4	*clefC4	*	*	*	*	*	*
(4.G#/	.	1r	.	(4.B/	.	(4.b\	.
8F#/	.	.	.	8A/	.	8a/	.
8E/L	.	.	.	8G#/L	.	8g#\L	.
8c#/	.	.	.	8e/	.	8ee\	.
8B/)	.	.	.	8d#/)	.	8dd#\)	.
16r	.	.	.	16r	.	16r	.
16A/Jk	.	.	.	16c#/Jk	.	16cc#\Jk	.
=10	=10	=10	=10	=10	=10	=10	=10
(4.B\	.	(4.G#/	.	8B/L	.	8b\L	.
.	.	.	.	8r	.	8r	.
.	.	.	.	8d#/J	.	8dd#\J	.
8A\	.	8F#/	.	8r	.	8r	.
8G#\L	.	8E/L	.	8e/	.	8ee\	.
8e\	.	8c#/	.	8r	.	8r	.
8d\)	.	8B/)	.	4r	.	4r	.
16r	.	16r	.	.	.	.	.
16B\Jk	.	16G#/Jk	.	.	.	.	.
=11	=11	=11	=11	=11	=11	=11	=11
8e\L	<	8A/L	<	(4.cc#\	<	(4.ee\	<
8r	<	8r	<	.	.	.	.
8g#\J	.	8E/J	.	.	.	.	.
8r	.	8r	.	8b\	<	8dd\	<
8a\	.	8A/	.	8a\L	.	8cc#\L	.
8r	.	8r	.	8ff#\	.	8aa\	.
4r	.	4r	.	8ee\)	.	8gg#\)	.
.	.	.	.	16r	.	16r	.
.	.	.	.	16dd\Jk	.	16ff#\Jk	.
=12	=12	=12	=12	=12	=12	=12	=12
(4.e\	.	(4.c#\	.	8cc#\L	.	8ee\L	.
.	.	.	.	8r	.	8r	.
.	.	.	.	8ee\J	.	8gg#\J	.
8d\	.	8B/	.	8r	.	8r	.
8c#\L	.	8A\L	.	8ee\L	.	8aa\L	.
8a\	.	8f#\	.	8r	.	8r	.
8gn\)	.	8e\)	.	8ee\J	.	8ccc#\J	.
16r	.	16r	.	8r	.	8r	.
16e\Jk	.	16c#\Jk	.	.	.	.	.
=13	=13	=13	=13	=13	=13	=13	=13
*clefF4	*clefF4	*	*	*	*	*	*
8.AA/L	f	8.A/L	f	4dd\ 4ff#\	f	4ddd\	f
16D/Jk	.	16d/Jk	.	.	.	.	.
[4F#\	.	[4f#\	.	4r	.	4r	.
(8.F#\L]	.	(8.f#\L]	.	2r	.	2r	.
16D\k)	.	16d\k)	.	.	.	.	.
8E\	.	8e\	.	.	.	.	.
16r	.	16r	.	.	.	.	.
16F#\Jk	.	16f#\Jk	.	.	.	.	.
=14	=14	=14	=14	=14	=14	=14	=14
8.BB/L	.	8.B\L	.	4r	.	2r	.
16D/Jk	.	16d\Jk	.	.	.	.	.
4F#\	.	4f#\	.	8.f#/L	.	.	.
.	.	.	.	16a/Jk	.	.	.
8.GG#/L	.	8.G#/L	.	2e/ 2dd/	.	4r	.
16BB/Jk	.	16B/Jk	.	.	.	.	.
8.E/L	.	4e\	.	.	.	8.ee\L	.
16GG#/Jk	.	.	.	.	.	16aa\Jk	.
=15	=15	=15	=15	=15	=15	=15	=15
4AA/	f	8.e\L	f	4e/ 4cc#/	f	8.ee\L	f
.	.	16c#\Jk	.	.	.	16aa\Jk	.
8.AA/L	.	8.a\L	.	8.ee\L	.	([4ccc#\	.
16C#/Jk	.	16e\Jk	.	16cc#\Jk	.	.	.
(8.E\L	.	(8.c#/L	.	(8.a\L	.	8.ccc#\L]	.
16C#\Jk)	.	16E/Jk)	.	16cc#\Jk)	.	16aa\k)	.
8BB/L	.	8G#/L	.	8e/L	.	8bb\	.
16r	.	16r	.	16r	.	16r	.
16AA/Jk	.	16A/Jk	.	16e/Jk	.	16eee\Jk	.
=16	=16	=16	=16	=16	=16	=16	=16
8GG#/L	.	8E/L	.	8e/L 8b/	.	8ddd\L	.
8r	.	8r	.	8r	.	8r	.
8AA/J	.	8E/J 8A/	.	8e/J 8a/	.	8ccc#\J	.
8r	.	8r	.	8r	.	8r	.
2r	.	2r	.	2r	.	2r	.
=17	=17	=17	=17	=17	=17	=17	=17
4C#/	.	4c#\	.	8.e/L	.	8.aa\L	.
.	.	.	.	16a/k	.	16ccc#\Jk	.
8.AA/L	.	8.A/L	.	8.cc#/	.	[4eee\	.
16EE/Jk	.	16E/Jk	.	16ee/Jk	.	.	.
8.CC#/L	.	(8.C#/L	.	(8.a/L	.	(8.eee\L]	.
16AA/k	.	16A/Jk)	.	16e/Jk)	.	16ccc#\Jk)	.
8FF#/	.	8F#/L	.	8a\L	.	8ddd\L	.
16r	.	16r	.	16r	.	16r	.
16DD/Jk	.	16D/Jk	.	16a\Jk 16aa\	.	16fff#\Jk	.
=18	=18	=18	=18	=18	=18	=18	=18
8EE/L	.	8E/L	.	8cc#\L 8aa\	.	8ccc#\L	.
8r	.	8r	.	8r	.	8r	.
8E/J	.	8e/J	.	8b\J 8gg#\	.	8bb\J	.
8r	.	8r	.	8r	.	8r	.
16BB\LL	.	4r	.	4r	.	4r	.
16D#\	.	.	.	.	.	.	.
16F#\	.	.	.	.	.	.	.
16A\JJ	.	.	.	.	.	.	.
4r	.	(16B\LL	p	8.a/L	p	(16d#/LL	p
.	.	16d#\	.	.	.	16f#/	.
.	.	16f#\	.	.	.	16a/	.
.	.	16B\JJ)	.	16a/Jk	.	16d#/JJ)	.
=19	=19	=19	=19	=19	=19	=19	=19
8.BB/L	.	2.F#/ 2.A/	.	(4.a/	.	4f#/	.
16D#/Jk	.	.	.	.	.	.	.
4F#\	.	.	.	.	.	8.dd#\L	.
.	.	.	.	8f#/	.	.	.
.	.	.	.	.	.	16ff#\Jk	.
4r	.	.	.	8e/L	.	4bb\	.
.	.	.	.	8d#/	.	.	.
4AA/	.	4F#/ 4B/	.	8f#/)	.	4r	.
.	.	.	.	16r	.	.	.
.	.	.	.	16b/Jk	.	.	.
=20	=20	=20	=20	=20	=20	=20	=20
8.GG#/L	.	2G#/ 2B/	.	(4.b\	.	4r	.
16BB/Jk	.	.	.	.	.	.	.
4E\	.	.	.	.	.	8.ee\L	.
.	.	.	.	8g#/	.	.	.
.	.	.	.	.	.	16gg#\Jk	.
4r	.	(16E/LL	.	8f#/L	.	4bb\	.
.	.	16G#/	.	.	.	.	.
.	.	16B/	.	8e/J)	.	.	.
.	.	16d/JJ)	.	.	.	.	.
4E\	.	4r	.	(16g#/LL	.	8.ddd\L	.
.	.	.	.	16b/	.	.	.
.	.	.	.	16dd/	.	.	.
.	.	.	.	16g#/JJ)	.	16ddd\Jk	.
=21	=21	=21	=21	=21	=21	=21	=21
8.EE/L	.	4r	.	2.g#/ 2.b/	.	(4.ddd\	.
16AA/Jk	.	.	.	.	.	.	.
4BB/	.	8.E/L	.	.	.	.	.
.	.	.	.	.	.	8bb\	.
.	.	16G#/Jk	.	.	.	.	.
4r	.	4B/	.	.	.	8aa\L	.
.	.	.	.	.	.	8gg#\	.
4DD/	.	4r	.	4e/ 4b/	.	8bb\)	.
.	.	.	.	.	.	16r	.
.	.	.	.	.	.	16eee\Jk	.
=22	=22	=22	=22	=22	=22	=22	=22
8.CC#/L	.	4r	.	[2e/ [2cc#/	.	(4.eee\	.
16EE/Jk	.	.	.	.	.	.	.
4AA/	.	8.C#/L	.	.	.	.	.
.	.	.	.	.	.	8ccc#\	.
.	.	16E/Jk	.	.	.	.	.
4r	.	(8A/L	.	(8e/L] 8cc#/]	.	8bb\L	.
.	.	8c#/J	.	8c#/J	.	8aa\	.
8BB/L	.	8F#/L)	.	8d/L)	.	8ddd\)	.
16r	.	16r	.	16r	.	16r	.
16D/Jk	.	16d/Jk	.	16ff#/Jk	.	16bb\Jk	.
=23	=23	=23	=23	=23	=23	=23	=23
4E\	.	(16B/LL	.	(16dd\LL	.	(4.aa\	.
.	.	16A#/	.	16cc#\	.	.	.
.	.	16B/	.	16dd\	.	.	.
.	.	16A#/JJ	.	16cc#\JJ	.	.	.
[4EE/	.	16B/LL	.	16dd\LL	.	.	.
.	.	16A#/	.	16cc#\	.	.	.
.	.	16B/	.	16dd\	.	8gg#\	.
.	.	16A#/JJ)	.	16cc#\JJ)	.	.	.
8EE/L]	<	8c#/L	<	(8ee\L	<	8aa\L	<
(8EE/	<	8B/	<	8dd\)	<	8gg#\	<
8FF#/)	.	8E/ 8B/	.	8dd\	.	8aa\)	.
16r	.	16r	.	16r	.	16r	.
16GG#/Jk	.	16E/Jk 16B/	.	16dd\Jk	.	16bb\Jk	.
=24	=24	=24	=24	=24	=24	=24	=24
8AA/L	f	8E\L 8c#\	f	8cc#/L	f	8ee\L	f
8r	.	8r	.	8r	.	8r	.
8EE/J	.	8e\J 8b\	.	8B/J 8d/	.	8e\J 8b\ 8gg#\	.
8r	.	8r	.	8r	.	8r	.
8AA/	.	8e\ 8a\	.	8c#/	.	8e\ 8cc#\ 8aa\	.
8r	.	8r	.	8r	.	8r	.
4r	.	4r	.	4r	.	4r	.
=25:|!	=25:|!	=25:|!	=25:|!	=25:|!	=25:|!	=25:|!	=25:|!
*>C	*>C	*>C	*>C	*>C	*>C	*>C	*>C
*k[]	*k[]	*k[]	*k[]	*k[]	*k[]	*k[]	*k[]
8EE/L	p	8E/L	p	1r	.	1r	.
8r	.	8r	.	.	.	.	.
8GG#/J	.	8G#/J	.	.	.	.	.
8r	.	8r	.	.	.	.	.
8AA/L	.	8A/L	.	.	.	.	.
8r	.	8r	.	.	.	.	.
8C/J	.	8c/J	.	.	.	.	.
8r	.	8r	.	.	.	.	.
=26	=26	=26	=26	=26	=26	=26	=26
8C/L	f	8C/L 8c/	f	8cc\L	f	1r	.
8r	.	8r	.	8r	.	.	.
8BB-/J	.	8c/J 8g/	.	8ee\J	.	.	.
8r	.	8r	.	8r	.	.	.
8AA/L	.	8c\L 8a\	.	8ff\L	.	.	.
8r	.	8r	.	8r	.	.	.
8FF/J	.	8c\J 8a\	.	8aa\J	.	.	.
8r	.	8r	.	8r	.	.	.
=27	=27	=27	=27	=27	=27	=27	=27
2EE/	p	2E/ 2G/	p	2c/ 2g/	p	2.cc\	.
2EE/	.	2E/ 2G/	.	2c/ 2g/	.	.	.
.	.	.	.	.	.	[4g/	.
=28	=28	=28	=28	=28	=28	=28	=28
2EE/	.	2E/ 2G/	.	2c/ 2g/	.	8g/L]	.
.	.	.	.	.	.	8g/	.
.	.	.	.	.	.	8f/	.
.	.	.	.	.	.	8g/J	.
2EE/	.	2E/ 2G/	.	2c/ 2g/	.	(8f/L	.
.	.	.	.	.	.	8e/)	.
.	.	.	.	.	.	8d/	.
.	.	.	.	.	.	8e/J	.
=29	=29	=29	=29	=29	=29	=29	=29
4EE/	.	4E/ 4G/	.	4c/ 4g/	.	(8d/L	.
.	.	.	.	.	.	8c/J)	.
4EE/	<	4c#\	<	2G/ 2g/	<	2B-/	.
4DD/	<	4d\	<	.	.	.	.
4D\	.	4d\	.	4G/ 4g/	<	4B-/	.
=30	=30	=30	=30	=30	=30	=30	=30
4D\	p	4d\	p	4G/ 4g/	p	4B-/	.
4r	.	4r	.	4r	.	(4g/	.
2r	.	2r	.	2r	.	4a/	.
.	.	.	.	.	.	4b-\)	.
=31	=31	=31	=31	=31	=31	=31	=31
*MM120	*MM120	*MM120	*MM120	*MM120	*MM120	*MM120	*MM120
8C#\L	f	8e\L	f	8a\L	f	(8b-\	.
8r	.	8r	.	8r	.	4.a/)	.
8G\J	.	8A\J	.	8cc#\J	.	.	.
8r	.	8r	.	8r	.	.	.
8F\L	.	8a\L	.	8dd\L	.	2r	.
8r	.	8r	.	8r	.	.	.
8D\J	.	8f\J	.	8ff\J	.	.	.
8r	.	8r	.	8r	.	.	.
=32	=32	=32	=32	=32	=32	=32	=32
2C#/	.	2A/	.	16ee/LL	.	4r	.
.	.	.	.	16e/	.	.	.
.	.	.	.	16e/	.	.	.
.	.	.	.	16e/JJ	.	.	.
.	.	.	.	4e/	.	[2.ee\	.
2C#/	.	2A/	.	2e/	.	.	.
=33	=33	=33	=33	=33	=33	=33	=33
2C#/	.	2A/	.	2e/	.	(4.ee\]	.
.	.	.	.	.	.	8a/)	.
2C#/	.	2A/	.	2e/	.	8a/L	.
.	.	.	.	.	.	8a/	.
.	.	.	.	.	.	8a/	.
.	.	.	.	.	.	8b-/J	.
=34	=34	=34	=34	=34	=34	=34	=34
2C#/	.	2E/ 2G/	.	2e/	.	(8a/L	.
.	.	.	.	.	.	8g/)	.
.	.	.	.	.	.	8g/	.
.	.	.	.	.	.	8a/J	.
2C#/	.	2E/ 2G/	.	2B-/ 2g/	.	[2b-\	.
=35	=35	=35	=35	=35	=35	=35	=35
2C#/	<	2E/ 2G/	<	2B-/ 2g/	<	(4b-\]	<
.	.	.	.	.	.	[4gg\)	<
2AA/	<	2E/ 2G/	<	2c#/ 2g/	<	8gg\L]	.
.	.	.	.	.	.	8gg\	.
.	.	.	.	.	.	8ff\	.
.	.	.	.	.	.	8ee\J	.
=36	=36	=36	=36	=36	=36	=36	=36
4E\	p	4E/ 4G/	p	4c#/ 4g/	p	(8dd\L	>
.	.	.	.	.	.	8cc#\)	>
4r	.	4r	.	4r	.	8b-\	.
.	.	.	.	.	.	8a\J	.
2r	.	2r	.	2r	.	(8g/L	.
.	.	.	.	.	.	8g#/	.
.	.	.	.	.	.	8a/	.
.	.	.	.	.	.	8e/J)	.
=37	=37	=37	=37	=37	=37	=37	=37
4r	.	4r	.	4r	.	(4g/	.
4D\	pp	4A/	pp	4f/	pp	4f/)	.
4D\	.	4A\ 4f\	.	4dd\	.	4r	.
4r	.	4r	.	4r	.	8r	.
.	.	.	.	.	.	8dd\	.
=38	=38	=38	=38	=38	=38	=38	=38
4r	.	4r	.	4r	.	(4dd\	<
4E\	<	4A\ 4g\	<	4cc#\	<	4cc#\)	<
4E\	<	4c#\	<	4gg\	<	4r	.
4r	.	4r	.	4r	.	8r	.
.	.	.	.	.	.	8ee\	.
=39	=39	=39	=39	=39	=39	=39	=39
4r	.	4r	.	4r	.	(4ee\	.
4F\	.	4a\	.	4dd\	.	4dd\)	.
4F\	.	4d\	.	4aa\	.	4r	.
4GG#/	ff	4B\ 4d\	ff	4dd\ 4ddd\	ff	[4fff\	ff
=40	=40	=40	=40	=40	=40	=40	=40
*M2/2	*M2/2	*M2/2	*M2/2	*M2/2	*M2/2	*M2/2	*M2/2
8G#\	.	8B\ 8d\	.	8dd\ 8ddd\	.	8fff\L]	.
*MM250	*MM250	*MM250	*MM250	*MM250	*MM250	*MM250	*MM250
8r	.	8r	.	8r	.	(8ddd\	.
4r	.	4r	.	4r	.	8ccc\	.
.	.	.	.	.	.	8bb\J)	.
2r	.	2r	.	2r	.	(8aa\L	.
.	.	.	.	.	.	8gg#\	.
.	.	.	.	.	.	8ff\	.
.	.	.	.	.	.	8ee\J)	.
=41	=41	=41	=41	=41	=41	=41	=41
1r	.	1r	.	1r	.	(8dd\L	.
.	.	.	.	.	.	8cc\	.
.	.	.	.	.	.	8b\	.
.	.	.	.	.	.	8a\J)	.
.	.	.	.	.	.	(8g#/L	.
.	.	.	.	.	.	8f/	.
.	.	.	.	.	.	8e/	.
.	.	.	.	.	.	8d/J)	.
=42	=42	=42	=42	=42	=42	=42	=42
1r	.	1r	.	1r	.	(8c/L	.
.	.	.	.	.	.	8B/	.
.	.	.	.	.	.	8A/	.
.	.	.	.	.	.	8G#/J)	.
.	.	.	.	.	.	(8B/L	.
.	.	.	.	.	.	8d/	.
.	.	.	.	.	.	8f/	.
.	.	.	.	.	.	8g#/J)	.
=43	=43	=43	=43	=43	=43	=43	=43
1r	.	1r	.	1r	.	(8a\L	.
.	.	.	.	.	.	8b-\	.
.	.	.	.	.	.	8b\	.
.	.	.	.	.	.	8cc\J	.
.	.	.	.	.	.	8cc#\L	.
.	.	.	.	.	.	8dd\	.
.	.	.	.	.	.	8dd#\	.
.	.	.	.	.	.	8ee\J)	.
=44	=44	=44	=44	=44	=44	=44	=44
4r	.	4r	.	4r	.	(4ff\	.
4D\	.	4B/	.	4ff\	.	2g#/	.
4D\	>	4B/	>	4f/	>	.	.
4D#\	.	4c\	.	4f#/	.	4a/)	.
=45	=45	=45	=45	=45	=45	=45	=45
4r	.	4r	.	4r	.	(4a/	.
4E\	p	4c\	p	4a/	p	[2.e/)	.
4r	.	4r	.	4r	.	.	.
4E\	.	4B/	.	4g#/	.	.	.
=46	=46	=46	=46	=46	=46	=46	=46
2r	.	2r	.	2r	.	(4.e/]	.
.	.	.	.	.	.	8f/)	>
4r	.	4r	.	4r	.	(4f/	.
8r	.	8r	.	8r	.	8e/)	.
8r	.	8r	.	8r	.	8r	.
=	=	=	=	=	=	=	=
*-	*-	*-	*-	*-	*-	*-	*-
!!!ENC: Craig Stuart Sapp
!!!END: 2006/08/18/
